X: 273
T: Baimaolin maihua
%%abc-version 2.0
%%abcx-abcm2ps-target-version 5.9.1 (29 Sep 2008)
%%abc-creator hum2abc beta
%%abcx-conversion-date 2013/10/02 07:52:29
%%abc-edited-by Helmut Schaffrath
%%humdrum-veritas 1466940332
%%humdrum-veritas-data 1283212035
%%continueall 1
%%barnumbers 0
L: 1/8
M: 2/4
K: Bb
b2d'2 [I:setbarnb 1]| 
d' c'b2 | 
d'2g2 | 
f2g b | 
b2d'2 | 
a c'd'2 | 
d'2d' c' | 
g4 | 
b2d'2 | 
d' c'b2 | 
d'2g2 | 
f2g b | 
b2d c | 
g b b g | 
f4 | 
b b b g | 
f g f g | 
d df2- | 
f2b2 | 
d'2d' c' | 
b2d'2 | 
g2f e | 
g fd2 | 
d' c'd'2- | 
d'2d' d' | 
d' c' b g | 
g fd2 | 
d'2d' c' | 
b3c' | 
f' d' c' d' | 
d' bc'2 | 
b gf2 |]  



